X:57
T:Cumberland House. LIT.057
M:4/4
Q:1/4=140
L:1/8
B:Wm. Litten MS, 1802
Z:Village Music Project 2017 Anne Wride
K:G
G>A | B>ABd | cBAG | EDEG A2 Bd | e2 g>e dBAG | E2 G>A G2 GA |
BABd cBAG | EDEG A2 Bd | edeg d>BAG | E2G>A G2 :|
|: B>A | G>AB>c d2 de | d>BA>G d2 g>f | e>fg>a gfed | B2e>f e2ef |
gfed B2 ef/g/ | d>BA>G A2 Bd | edBe dBAG | E2 G>A G2 :|

